outputs/icons/general/exit_round.svg

<svg xmlns="http://www.w3.org/2000/svg" width="1200" height="1200" fill="none"><path fill="#000" d="M539.65 744.215c-19.425 19.5-19.395 51.04.065 70.5 19.49 19.49 51.08 19.49 70.57 0L816.16 608.84c4.885-4.885 4.885-12.795 0-17.68L610.285 385.284c-19.49-19.487-51.08-19.487-70.57 0-19.46 19.46-19.49 51.002-.065 70.5L633.5 550H200c-27.615 0-50 22.385-50 50s22.386 50 50 50h433.5zM950 150H250c-55.5 0-100 45-100 100v150c0 27.614 22.386 50 50 50s50-22.386 50-50V250h700v700H250V800c0-27.615-22.386-50-50-50s-50 22.385-50 50v150c0 55 44.5 100 100 100h700c55 0 100-45 100-100V250c0-55-45-100-100-100"/></svg>

<svg width="1200" height="1200" viewBox="0 0 1200 1200" fill="none" xmlns="http://www.w3.org/2000/svg"><path d="M539.65 744.215C520.225 763.715 520.255 795.255 539.715 814.715C559.205 834.205 590.795 834.205 610.285 814.715L816.16 608.84C821.045 603.955 821.045 596.045 816.16 591.16L610.285 385.284C590.795 365.797 559.205 365.797 539.715 385.284C520.255 404.744 520.225 436.286 539.65 455.784L633.5 550H200C172.385 550 150 572.385 150 600C150 627.615 172.386 650 200 650H633.5L539.65 744.215ZM950 150H250C194.5 150 150 195 150 250V400C150 427.614 172.386 450 200 450C227.614 450 250 427.614 250 400V250H950V950H250V800C250 772.385 227.614 750 200 750C172.386 750 150 772.385 150 800V950C150 1005 194.5 1050 250 1050H950C1005 1050 1050 1005 1050 950V250C1050 195 1005 150 950 150Z" fill="black"/></svg>
